svg/bell.svg

<svg xmlns="http://www.w3.org/2000/svg" width="8" height="8" viewBox="0 0 8 8">
  <path d="M4 0c-1.1 0-2 .9-2 2 0 1.04-.52 1.98-1.34 2.66-.41.34-.66.82-.66 1.34h8c0-.52-.24-1-.66-1.34-.82-.68-1.34-1.62-1.34-2.66 0-1.1-.89-2-2-2zm-1 7c0 .55.45 1 1 1s1-.45 1-1h-2z" />
</svg>

<?xml version="1.0" encoding="UTF-8" standalone="no"?>
<svg
   width="8"
   height="8"
   viewBox="0 0 8 8"
   version="1.1"
   id="svg1"
   sodipodi:docname="bell.svg"
   inkscape:version="1.3 (0e150ed6c4, 2023-07-21)"
   xmlns:inkscape="http://www.inkscape.org/namespaces/inkscape"
   xmlns:sodipodi="http://sodipodi.sourceforge.net/DTD/sodipodi-0.dtd"
   xmlns="http://www.w3.org/2000/svg"
   xmlns:svg="http://www.w3.org/2000/svg">
  <defs
     id="defs1" />
  <sodipodi:namedview
     id="namedview1"
     pagecolor="#505050"
     bordercolor="#eeeeee"
     borderopacity="1"
     inkscape:showpageshadow="0"
     inkscape:pageopacity="0"
     inkscape:pagecheckerboard="0"
     inkscape:deskcolor="#505050"
     showgrid="false"
     inkscape:zoom="94.88"
     inkscape:cx="3.9997892"
     inkscape:cy="3.9997892"
     inkscape:window-width="1254"
     inkscape:window-height="1041"
     inkscape:window-x="1297"
     inkscape:window-y="0"
     inkscape:window-maximized="0"
     inkscape:current-layer="svg1" />
  <rect
     style="fill:#ff1161;fill-opacity:1;fill-rule:evenodd;stroke:#f6e04e;stroke-width:0;stroke-dasharray:none;stroke-opacity:0"
     id="rect1"
     width="7.9999766"
     height="7.9999838"
     x="1.168251e-05"
     y="8.1062317e-06" />
  <path
     d="M 3,7 C 3,7.55 3.45,8 4,8 4.55,8 5,7.55 5,7 Z"
     id="path2"
     style="fill:#f6e04e" />
  <path
     d="M 4,0 C 2.9,0 2,0.9 2,2 2,3.04 1.48,3.98 0.66,4.66 0.25,5 0,5.48 0,6 H 8 C 8,5.48 7.76,5 7.34,4.66 6.52,3.98 6,3.04 6,2 6,0.9 5.11,0 4,0 Z"
     id="path1"
     style="fill:#11a1ff" />
</svg>
